X:149
T:Pipe March
B:NFID.178
149pipe_m
S:F&MB
L:1/8
M:4/4
R:march
Q:280
K:A=G
%A
A3c B2GB|A2D2 D3B|AGFE DEFG|A4-AGFG|
A3c (3BcB GB|A2D2 A4|GFED CDEF|G4 F2G2|
A3c B2GB|A2D2 D3B|AGFE DEFG|A4-AGFG|
A2d2 (3cdc Ac|(3BdB G2A4|GFED CDEF|G4 F2E2||
%B
D2d2F2d2|A2D2D4|D2d2 DEFG|A3B AGFE|
D2d2F2d2|A2D2A4|GFED CDEF|G4 F2 (3EGE|
D2d2F2d2|(3AdA D2D2-D2-|D3A DEFG|A6 Bc|
dcbd cBAc|B2G2A4|GFED CDEF|G4 F2 (3EGE||
%C
D3E F2D2|A2D2F2D2|A3B AFDF|A2B2 AGFE|
D3E F2D2|A2D2F2D2|G3E GECE|G2A2 GECE|
D3E F2D2|A2D2F2D2|A3B AFDF|A4 B3c|
dcBd cBAc|B2G2A4|GFED CDEF|G4F2E2||"FINAL" [D8D,8]|

